X:175
T: Sarah's Valentine
C: Eamon Flynn
Z: B.Black
R: jig (slow)
M: 6/8
L: 1/8
K: G
d | gfg agf | gdB c2 d | BAB cAG | FG^G ABd |
gfg agf | gdB c2 d | BDB ADA |1 G3 G2 :|2 G3 G2 D ||
B,C^C DEF | GAB c2 d | BAB cAG | FG^G AFD |
B,C^C DEF | GAB c2 d | BDB ADA | G3 G2 :|
